!!!COM: Stravinsky, Igor
!!!OPR: In Memoriam Dylan Thoms
!!!OTL: Dirge - Canons
**kern	**kern	**kern	**kern	**kern	**kern	**kern	**kern
*M3/2	*M3/2	*M3/2	*M3/2	*M3/2	*M3/2	*M3/2	*M3/2
*k[]	*k[]	*k[]	*k[]	*k[]	*k[]	*k[]	*k[]
*X:	*X:	*X:	*X:	*X:	*X:	*X:	*X:
*MM102	*MM102	*MM102	*MM102	*MM102	*MM102	*MM102	*MM102
*ICstr	*ICstr	*ICstr	*ICstr	*ICbra	*ICbra	*ICbra	*ICbra
*Ivcel	*Ivla	*Ivln	*Ivln	*Ibtro	*Itrom	*Itrom	*Itrom
=1	=1	=1	=1	=1	=1	=1	=1
1.r	1.r	1.r	1.r	1.r	1.D	2r	1d
.	.	.	.	.	.	2E	.
.	.	.	.	.	.	[2D#'~	[2d#'~
=2	=2	=2	=2	=2	=2	=2	=2
*M2/2	*M2/2	*M2/2	*M2/2	*M2/2	*M2/2	*M2/2	*M2/2
1r	1r	1r	1r	2DD'~	2C#'~	4D#]	2d#'~]
.	.	.	.	.	.	(2.cn'~	.
.	.	.	.	(4DD#	([2Cn'~	.	(2f#'~
.	.	.	.	4EE)	.	.	.
=3	=3	=3	=3	=3	=3	=3	=3
*M3/2	*M3/2	*M3/2	*M3/2	*M3/2	*M3/2	*M3/2	*M3/2
1.r	1.r	1.r	1.r	2CC#,	4C]	2c#),	2fn),
.	.	.	.	.	4D#,)	.	.
.	.	.	.	1CCn'~	1E'~	1D'~	1e'~
*:A	*:A	*:A	*:A	*:A	*:A	*:A	*:A
=4	=4	=4	=4	=4	=4	=4	=4
!! Marcato cantabile
!! Con sordino
*M5/4	*M5/4	*M5/4	*M5/4	*M5/4	*M5/4	*M5/4	*M5/4
2.r	(2c'~	2.r	2.r	2.r	2.r	2.r	2.r
.	4c'~)	.	.	.	.	.	.
2r	(4c#	2r	2r	2r	2r	2r	2r
.	4d)	.	.	.	.	.	.
=5	=5	=5	=5	=5	=5	=5	=5
2.r	(4B	(2g'~	2.r	2.r	2.r	2.r	2.r
.	4B-)	.	.	.	.	.	.
.	[4c	4g'~)	.	.	.	.	.
2r	4c]	(4g	2r	2r	2r	2r	2r
.	(4c#	4f#	.	.	.	.	.
=6	=6	=6	=6	=6	=6	=6	=6
2.r	4e	2fn)	4r	2.r	2.r	2.r	2.r
.	2e-)	.	(4cc'~	.	.	.	.
.	.	[4a-'~	4cc'~)	.	.	.	.
2r	(4d	4a-]	(4cc#	2r	2r	2r	2r
.	[4c	[4an'~	4ee	.	.	.	.
=7	=7	=7	=7	=7	=7	=7	=7
4r	4c])	2a]	4ee-	2.r	2.r	2.r	2.r
(4GG'~ 4G'~	[2B	.	2dd)	.	.	.	.
4GG'~ 4G'~)	.	[4b'~	.	.	.	.	.
(4GG 4G	4B]	2b]	(4e-	2r	2r	2r	2r
[4FF#	[4A#	.	4en	.	.	.	.
=8	=8	=8	=8	=8	=8	=8	=8
4FF#]	2A#]	(4cc	4g	2.r	2.r	2.r	2.r
4D#)	.	2cc#)	2f#)	.	.	.	.
(4EE	([4C#	.	.	.	.	.	.
[2FFn	4C#]	(4B-	[2fn	2r	2r	2r	2r
.	[4Dn	[4A	.	.	.	.	.
*:B	*:B	*:B	*:B	*:B	*:B	*:B	*:B
=9	=9	=9	=9	=9	=9	=9	=9
*M3/2	*M3/2	*M3/2	*M3/2	*M3/2	*M3/2	*M3/2	*M3/2
2FF]	2D])	2A])	2f]	1.r	1.D	2r	1d'~
2r	2r	2r	2r	.	.	2E'~	.
2r	2r	2r	2r	.	.	[2D#'~	[2d#'~
=10	=10	=10	=10	=10	=10	=10	=10
*M2/2	*M2/2	*M2/2	*M2/2	*M2/2	*M2/2	*M2/2	*M2/2
1r	1r	1r	1r	2DD'~	2C#'~	4D#]	2d#]
.	.	.	.	.	.	2.cn'~	.
.	.	.	.	(4DD#	([2Cn'~	.	(2f#'~
.	.	.	.	4EE)	.	.	.
=11	=11	=11	=11	=11	=11	=11	=11
*M3/2	*M3/2	*M3/2	*M3/2	*M3/2	*M3/2	*M3/2	*M3/2
2r	2r	2r	2r	2CC#,	4C]	2c#,	2fn)
.	.	.	.	.	4D#),	.	.
1r	4r	1r	1r	1CCn'~	1E'~	1D'~	1e'~
.	(2d'~	.	.	.	.	.	.
.	4d 4dd)	.	.	.	.	.	.
=12	=12	=12	=12	=12	=12	=12	=12
*M5/4	*M5/4	*M5/4	*M5/4	*M5/4	*M5/4	*M5/4	*M5/4
2r	(4d 4dd	2r	2r	2r	2r	2r	2r
.	4dd-	.	.	.	.	.	.
(2D'~	2b-	2.r	2.r	2.r	2.r	2.r	2.r
4D 4d)	4bn)	.	.	.	.	.	.
=13	=13	=13	=13	=13	=13	=13	=13
(4D 4d	4cc	2r	2r	2r	2r	2r	2r
4d-	([4dd-	.	.	.	.	.	.
4B-	2dd-]	(2a-'~	2.r	2.r	2.r	2.r	2.r
2c-	.	.	.	.	.	.	.
.	4ff-)	4a-'~)	.	.	.	.	.
=14	=14	=14	=14	=14	=14	=14	=14
(4cn	2ee-	(4a-	2r	2r	2r	2r	2r
[4d-	.	4g)	.	.	.	.	.
2d-]	(4ddn	(4g-	(2aa-'~	2.r	2.r	2.r	2.r
.	4cc-	4an	.	.	.	.	.
4f-)	[4b-	4b-)	4aa-'~)	.	.	.	.
=15	=15	=15	=15	=15	=15	=15	=15
2e-	4b-])	(4bn	(4aa-	2r	2r	2r	2r
.	[4g	4cc	4gg	.	.	.	.
[2.d	4g]	4dd-	4ee	2.r	2.r	2.r	2.r
.	(4a-	(4b-	2ff)	.	.	.	.
.	[4an	[4a	.	.	.	.	.
*:C	*:C	*:C	*:C	*:C	*:C	*:C	*:C
=16	=16	=16	=16	=16	=16	=16	=16
*M2/2	*M2/2	*M2/2	*M2/2	*M2/2	*M2/2	*M2/2	*M2/2
1d]	1a])	1a])	1ff#	1r	2r	1r	2r
.	.	.	.	.	[2D'~	.	[2d'~
=17	=17	=17	=17	=17	=17	=17	=17
*M3/2	*M3/2	*M3/2	*M3/2	*M3/2	*M3/2	*M3/2	*M3/2
1.r	1.r	1.r	1.r	2r	1D]	2E'~	2d]
.	.	.	.	2r	.	[2D#'~	1d#'~
.	.	.	.	2DD'~	2C#'~	4D#]	.
.	.	.	.	.	.	([4cn'~	.
=18	=18	=18	=18	=18	=18	=18	=18
*M2/2	*M2/2	*M2/2	*M2/2	*M2/2	*M2/2	*M2/2	*M2/2
1r	1r	1r	1r	(4DD#	(2.C'~	2c]	(2f#'~
.	.	.	.	4EE)	.	.	.
.	.	.	.	2CC#,	.	2c#),	2fn),
.	.	.	.	.	4D#),	.	.
=19	=19	=19	=19	=19	=19	=19	=19
*M3/2	*M3/2	*M3/2	*M3/2	*M3/2	*M3/2	*M3/2	*M3/2
4r	4r	4r	4r	1.CCn'~	1.E'~	1.D'~	1.e'~
[4c	[4cc	[4dd	[4eee	.	.	.	.
1c]	1cc]	1dd]	1eee]	.	.	.	.
==	==	==	==	==	==	==	==
*-	*-	*-	*-	*-	*-	*-	*-
